X:28
T:Love in a Village
S:Petrie's Third Collection of Strathspey Reels and Country Dances &c.
Z:Steve Wyrick , 7/30/05
N:Petrie's Third Collection, page 12
L:1/8
M:C
R:Reel
K:G
B|GGGG (B/c/d) BG|GGGG F/G/A FD|GGGG (B/c/d) BG|ceAc BGG::f|
gggd (B/c/d) BG|gggG (F/G/A) FD|gggd (F/c/d) BG|ceAc BGG:|]
